X:0816
M:6/8
L:1/8
Q:3/8=90
K:D
     aee    cA/B/c/A/|eee       e2 e/d/|cA/B/c/A/ ^GE/F/G/E/|AAA  A2
a/g/|fdd    cAc      |daa       a2 a/g/|fdd        cA/B/c/A/|ddd  d2
f/d/|e2f/d/ e2e/f/   |ggg/a/   Hb2 b/a/|fdd        cA/B/c/A/|ddd  d2      |]

